assets/images/script/l-4-bot.svg

<svg fill="none" height="241" viewBox="0 0 208 241" width="208" xmlns="http://www.w3.org/2000/svg"><path d="m126.187 3.2882c27.75 0-55.5115-.45413-83.2504.33841-12.607.3602-50.43004 1.18445-37.8179 1.18445 2.47586 0 5.6969-.51975 8.0374.33842 16.3439 11.11222 14.85 16.90812 38.9177 51.17842s51.1892 68.6231 61.2532 110.1541c6.045 24.946 3.735 42.267-9.899 64.536-12.2357 19.985-17.7701-8.016-19.797-19.544-5.6172-31.947-4.1768-47.149 3.2995-78.648 5.4837-23.103 17.5695-43.3472 41.6255-43.3472 13.568 0 28.291 2.2024 28.071 20.4742-.17 14.157-16.616 22.48-17.343 36.295-.875 16.607 22.013 7.642 30.372 20.263 9.243 13.954 11.394 61.492-7.156 68.751-20.12 7.873-20.363-24-7.565-47.769 13.366-24.822 32.008-47.413 49.578-69.375" stroke="#000" stroke-linecap="round" stroke-width="5"/></svg>

<svg width="208" height="241" viewBox="0 0 208 241" fill="none" xmlns="http://www.w3.org/2000/svg">
<path d="M126.187 3.2882C153.937 3.2882 70.6755 2.83407 42.9366 3.62661C30.3296 3.98681 -7.49344 4.81106 5.1187 4.81106C7.59456 4.81106 10.8156 4.29131 13.1561 5.14948C29.5 16.2617 28.0061 22.0576 52.0738 56.3279C76.1415 90.5982 103.263 124.951 113.327 166.482C119.372 191.428 117.062 208.749 103.428 231.018C91.1923 251.003 85.6579 223.002 83.631 211.474C78.0138 179.527 79.4542 164.325 86.9305 132.826C92.4142 109.723 104.5 89.4788 128.556 89.4788C142.124 89.4788 156.847 91.6812 156.627 109.953C156.457 124.11 140.011 132.433 139.284 146.248C138.409 162.855 161.297 153.89 169.656 166.511C178.899 180.465 181.05 228.003 162.5 235.262C142.38 243.135 142.137 211.262 154.935 187.493C168.301 162.671 186.943 140.08 204.513 118.118" stroke="black" stroke-width="5" stroke-linecap="round"/>
</svg>
